storage/app/icons/phosphoricons/fill/folder-user-fill.svg

<svg xmlns="http://www.w3.org/2000/svg" fill="currentColor" viewBox="0 0 256 256"><path d="M231.73 221.94A8 8 0 0 1 224 232h-64a8 8 0 0 1-7.73-10 40 40 0 0 1 17.11-23.33 32 32 0 1 1 45.24 0 40 40 0 0 1 17.11 23.27M232 88v32a8 8 0 0 1-16 0V88H40v112h80.56a8 8 0 0 1 0 16H39.38A15.4 15.4 0 0 1 24 200.62V56a16 16 0 0 1 16-16h52.69A15.86 15.86 0 0 1 104 44.69L131.31 72H216a16 16 0 0 1 16 16M108.69 72l-16-16H40v16Z"/></svg>

<svg xmlns="http://www.w3.org/2000/svg" viewBox="0 0 256 256" fill="currentColor"><path d="M231.73,221.94A8,8,0,0,1,224,232H160A8,8,0,0,1,152.27,222a40,40,0,0,1,17.11-23.33,32,32,0,1,1,45.24,0A40,40,0,0,1,231.73,221.94ZM232,88v32a8,8,0,0,1-16,0V88H40V200h80.56a8,8,0,0,1,0,16H39.38A15.4,15.4,0,0,1,24,200.62V56A16,16,0,0,1,40,40H92.69A15.86,15.86,0,0,1,104,44.69L131.31,72H216A16,16,0,0,1,232,88ZM108.69,72l-16-16H40V72Z"/></svg>
